Adwaita++/actions/16/depth16to8.svg

<svg height="16" viewBox="0 0 16 16" width="16" xmlns="http://www.w3.org/2000/svg">
  <path d="m1 1v2h1v8h2v-10h-2zm7 0c-1.6568542 0-3 1.3431458-3 3v4c0 1.6568542 1.3431458 3 3 3s3-1.3431458 3-3-1.3431458-3-3-3c-.3408996.0013511-.6790752.060796-1 .1757812v-1.1757812c0-.5522847.4477153-1 1-1s1 .4477153 1 1h2c0-1.6568542-1.3431458-3-3-3zm0 6c.5522847 0 1 .4477153 1 1s-.4477153 1-1 1-1-.4477153-1-1 .4477153-1 1-1zm6 1c-1.104569 0-2 .8954305-2 2 .000648.574405.248235 1.120803.679688 1.5-.431454.379197-.67904.925595-.679688 1.5 0 1.10457.895431 2 2 2 1.10457 0 2-.89543 2-2-.000648-.574405-.248235-1.120803-.679688-1.5.431453-.379197.67904-.925595.679688-1.5 0-1.1045695-.89543-2-2-2zm0 1c.552285 0 1 .4477153 1 1 0 .552285-.447715 1-1 1s-1-.447715-1-1c0-.5522847.447715-1 1-1zm0 3c.552285 0 1 .447715 1 1s-.447715 1-1 1-1-.447715-1-1 .447715-1 1-1z" fill="#474747"/>
</svg>

<svg xmlns="http://www.w3.org/2000/svg" width="16" height="16" version="1.1" viewBox="0 0 16 16">
 <defs>
  <style id="current-color-scheme" type="text/css">
   .ColorScheme-Text { color:#474747; } .ColorScheme-Highlight { color:#4285f4; }
  </style>
 </defs>
 <path style="fill:currentColor" class="ColorScheme-Text" d="m 1,1 v 2 h 1 v 8 H 4 V 1 H 2 Z M 8,1 C 6.3431458,1 5,2.3431458 5,4 v 4 c 0,1.6568542 1.3431458,3 3,3 1.6568542,0 3,-1.3431458 3,-3 C 11,6.3431458 9.6568542,5 8,5 7.6591004,5.0013511 7.3209248,5.060796 7,5.1757812 V 4 C 7,3.4477153 7.4477153,3 8,3 8.5522847,3 9,3.4477153 9,4 h 2 C 11,2.3431458 9.6568542,1 8,1 Z M 8,7 C 8.5522847,7 9,7.4477153 9,8 9,8.5522847 8.5522847,9 8,9 7.4477153,9 7,8.5522847 7,8 7,7.4477153 7.4477153,7 8,7 Z m 6,1 c -1.104569,0 -2,0.8954305 -2,2 6.48e-4,0.574405 0.248235,1.120803 0.679688,1.5 C 12.248234,11.879197 12.000648,12.425595 12,13 c 0,1.10457 0.895431,2 2,2 1.10457,0 2,-0.89543 2,-2 -6.48e-4,-0.574405 -0.248235,-1.120803 -0.679688,-1.5 C 15.751765,11.120803 15.999352,10.574405 16,10 16,8.8954305 15.10457,8 14,8 Z m 0,1 c 0.552285,0 1,0.4477153 1,1 0,0.552285 -0.447715,1 -1,1 -0.552285,0 -1,-0.447715 -1,-1 0,-0.5522847 0.447715,-1 1,-1 z m 0,3 c 0.552285,0 1,0.447715 1,1 0,0.552285 -0.447715,1 -1,1 -0.552285,0 -1,-0.447715 -1,-1 0,-0.552285 0.447715,-1 1,-1 z"/>
</svg>
